icons-rebrand/svg/backspace-regular.svg

<svg width="32" height="32" viewBox="0 0 32 32" fill="none" xmlns="http://www.w3.org/2000/svg">
<path d="M24.998 6.25H12.565C11.9181 6.2506 11.2781 6.38304 10.6841 6.63921C10.09 6.89539 9.55445 7.26994 9.11 7.74L2.725 14.36C2.42983 14.6743 2.261 15.0864 2.25085 15.5175C2.2407 15.9485 2.38995 16.3682 2.67 16.696L9.063 24.066C9.5088 24.5942 10.0647 25.0187 10.6917 25.3096C11.3187 25.6004 12.0018 25.7508 12.693 25.75H24.998C26.2573 25.7484 27.4645 25.2475 28.355 24.357C29.2455 23.4666 29.7464 22.2593 29.748 21V11C29.7467 9.74063 29.2458 8.53322 28.3553 7.6427C27.4648 6.75219 26.2574 6.25132 24.998 6.25ZM28.248 21C28.2469 21.8616 27.9042 22.6877 27.2949 23.2969C26.6857 23.9062 25.8596 24.2489 24.998 24.25H12.692C12.2176 24.25 11.749 24.1462 11.319 23.9458C10.889 23.7454 10.5081 23.4533 10.203 23.09L3.81 15.72C3.77135 15.6746 3.75029 15.6168 3.75066 15.5571C3.75103 15.4975 3.77279 15.44 3.812 15.395L10.198 8.775C10.5022 8.452 10.8691 8.19449 11.2763 8.01824C11.6834 7.84199 12.1223 7.75072 12.566 7.75H24.999C25.8606 7.75106 26.6867 8.09381 27.2959 8.70307C27.9052 9.31234 28.2479 10.1384 28.249 11V21H28.248Z" fill="#0F0F0F"/>
<path d="M24.53 11.47C24.4605 11.4003 24.3778 11.3451 24.2869 11.3074C24.196 11.2697 24.0985 11.2502 24 11.2502C23.9016 11.2502 23.8041 11.2697 23.7131 11.3074C23.6222 11.3451 23.5396 11.4003 23.47 11.47L20 14.94L16.53 11.47C16.3878 11.3375 16.1998 11.2654 16.0055 11.2688C15.8112 11.2723 15.6258 11.351 15.4884 11.4884C15.351 11.6258 15.2723 11.8112 15.2688 12.0055C15.2654 12.1998 15.3375 12.3878 15.47 12.53L18.94 16L15.47 19.47C15.4004 19.5396 15.3452 19.6222 15.3075 19.7132C15.2699 19.8041 15.2505 19.9016 15.2505 20C15.2505 20.0984 15.2699 20.1959 15.3075 20.2868C15.3452 20.3778 15.4004 20.4604 15.47 20.53C15.5396 20.5996 15.6223 20.6548 15.7132 20.6925C15.8041 20.7301 15.9016 20.7495 16 20.7495C16.0985 20.7495 16.1959 20.7301 16.2869 20.6925C16.3778 20.6548 16.4604 20.5996 16.53 20.53L20 17.062L23.47 20.532C23.6122 20.6645 23.8002 20.7366 23.9945 20.7332C24.1888 20.7297 24.3742 20.651 24.5116 20.5136C24.6491 20.3762 24.7278 20.1908 24.7312 19.9965C24.7346 19.8022 24.6625 19.6142 24.53 19.472L21.06 16L24.53 12.53C24.5997 12.4604 24.655 12.3778 24.6927 12.2869C24.7304 12.1959 24.7498 12.0984 24.7498 12C24.7498 11.9015 24.7304 11.8041 24.6927 11.7131C24.655 11.6222 24.5997 11.5396 24.53 11.47Z" fill="#0F0F0F"/>
</svg>

<svg width="32" height="32" viewBox="0 0 32 32" fill="none" xmlns="http://www.w3.org/2000/svg"><path d="M24.998 6.25H12.565A4.761 4.761 0 0 0 9.11 7.74l-6.385 6.62a1.751 1.751 0 0 0-.055 2.336l6.393 7.37a4.743 4.743 0 0 0 3.63 1.684h12.305a4.756 4.756 0 0 0 4.75-4.75V11a4.755 4.755 0 0 0-4.75-4.75zM28.248 21a3.254 3.254 0 0 1-3.25 3.25H12.692a3.25 3.25 0 0 1-2.489-1.16L3.81 15.72a.249.249 0 0 1 .002-.325l6.386-6.62a3.26 3.26 0 0 1 2.368-1.025h12.433a3.254 3.254 0 0 1 3.25 3.25v10z" fill="#0F0F0F"/><path d="M24.53 11.47a.749.749 0 0 0-1.06 0L20 14.94l-3.47-3.47a.75.75 0 0 0-1.06 1.06L18.94 16l-3.47 3.47a.749.749 0 1 0 1.06 1.06L20 17.062l3.47 3.47a.75.75 0 0 0 1.06-1.06L21.06 16l3.47-3.47a.749.749 0 0 0 0-1.06z" fill="#0F0F0F"/></svg>
